images/29690.svg

<?xml version="1.0" encoding="UTF-8"?>
<svg xmlns="http://www.w3.org/2000/svg" xmlns:xlink="http://www.w3.org/1999/xlink" width="300pt" height="300pt" viewBox="0 0 300 300" version="1.1">
<defs>
<g>
<symbol overflow="visible" id="glyph0-0">
<path style="stroke:none;" d="M 0.59375 2.125 L 0.59375 -8.46875 L 6.59375 -8.46875 L 6.59375 2.125 Z M 1.265625 1.453125 L 5.9375 1.453125 L 5.9375 -7.78125 L 1.265625 -7.78125 Z M 1.265625 1.453125 "/>
</symbol>
<symbol overflow="visible" id="glyph0-1">
<path style="stroke:none;" d="M 1.171875 -8.75 L 6.203125 -8.75 L 6.203125 -7.75 L 2.359375 -7.75 L 2.359375 -5.171875 L 5.828125 -5.171875 L 5.828125 -4.171875 L 2.359375 -4.171875 L 2.359375 0 L 1.171875 0 Z M 1.171875 -8.75 "/>
</symbol>
<symbol overflow="visible" id="glyph0-2">
<path style="stroke:none;" d="M 1.171875 -8.75 L 2.765625 -8.75 L 6.65625 -1.4375 L 6.65625 -8.75 L 7.796875 -8.75 L 7.796875 0 L 6.203125 0 L 2.328125 -7.3125 L 2.328125 0 L 1.171875 0 Z M 1.171875 -8.75 "/>
</symbol>
<symbol overflow="visible" id="glyph0-3">
<path style="stroke:none;" d="M 1.171875 -8.75 L 2.359375 -8.75 L 2.359375 -5.15625 L 6.65625 -5.15625 L 6.65625 -8.75 L 7.84375 -8.75 L 7.84375 0 L 6.65625 0 L 6.65625 -4.171875 L 2.359375 -4.171875 L 2.359375 0 L 1.171875 0 Z M 1.171875 -8.75 "/>
</symbol>
</g>
</defs>
<g id="surface17569">
<rect x="0" y="0" width="300" height="300" style="fill:rgb(100%,100%,100%);fill-opacity:1;stroke:none;"/>
<path style="fill:none;stroke-width:1.2;stroke-linecap:butt;stroke-linejoin:miter;stroke:rgb(20%,80%,80%);stroke-opacity:1;stroke-miterlimit:10;" d="M 35.867188 121.929688 L 42.96875 134.585938 "/>
<path style="fill:none;stroke-width:1.2;stroke-linecap:butt;stroke-linejoin:miter;stroke:rgb(0%,0%,0%);stroke-opacity:1;stroke-miterlimit:10;" d="M 42.96875 134.585938 L 50.066406 147.238281 "/>
<path style=" stroke:none;fill-rule:nonzero;fill:rgb(100%,100%,100%);fill-opacity:1;" d="M 28.867188 114.929688 L 35.867188 114.929688 L 35.867188 128.929688 L 28.867188 128.929688 Z M 28.867188 114.929688 "/>
<g style="fill:rgb(20%,80%,80%);fill-opacity:1;">
  <use xlink:href="#glyph0-1" x="28.867188" y="126.068359"/>
</g>
<path style="fill:none;stroke-width:1.2;stroke-linecap:butt;stroke-linejoin:miter;stroke:rgb(0%,0%,0%);stroke-opacity:1;stroke-miterlimit:10;" d="M 50.066406 147.238281 L 35.25 172.191406 "/>
<path style="fill:none;stroke-width:1.2;stroke-linecap:butt;stroke-linejoin:miter;stroke:rgb(0%,0%,0%);stroke-opacity:1;stroke-miterlimit:10;" d="M 54.457031 153.21875 L 42.601562 173.183594 "/>
<path style="fill:none;stroke-width:1.2;stroke-linecap:butt;stroke-linejoin:miter;stroke:rgb(0%,0%,0%);stroke-opacity:1;stroke-miterlimit:10;" d="M 79.085938 147.59375 L 50.066406 147.238281 "/>
<path style="fill:none;stroke-width:1.2;stroke-linecap:butt;stroke-linejoin:miter;stroke:rgb(0%,0%,0%);stroke-opacity:1;stroke-miterlimit:10;" d="M 35.25 172.191406 L 49.449219 197.5 "/>
<path style="fill:none;stroke-width:1.2;stroke-linecap:butt;stroke-linejoin:miter;stroke:rgb(0%,0%,0%);stroke-opacity:1;stroke-miterlimit:10;" d="M 49.449219 197.5 L 78.46875 197.855469 "/>
<path style="fill:none;stroke-width:1.2;stroke-linecap:butt;stroke-linejoin:miter;stroke:rgb(0%,0%,0%);stroke-opacity:1;stroke-miterlimit:10;" d="M 52.4375 190.707031 L 75.652344 190.992188 "/>
<path style="fill:none;stroke-width:1.2;stroke-linecap:butt;stroke-linejoin:miter;stroke:rgb(0%,0%,0%);stroke-opacity:1;stroke-miterlimit:10;" d="M 78.46875 197.855469 L 85.570312 210.511719 "/>
<path style="fill:none;stroke-width:1.2;stroke-linecap:butt;stroke-linejoin:miter;stroke:rgb(20%,80%,80%);stroke-opacity:1;stroke-miterlimit:10;" d="M 85.570312 210.511719 L 92.671875 223.164062 "/>
<path style="fill:none;stroke-width:1.2;stroke-linecap:butt;stroke-linejoin:miter;stroke:rgb(0%,0%,0%);stroke-opacity:1;stroke-miterlimit:10;" d="M 78.46875 197.855469 L 93.289062 172.902344 "/>
<path style=" stroke:none;fill-rule:nonzero;fill:rgb(100%,100%,100%);fill-opacity:1;" d="M 89.671875 216.164062 L 96.671875 216.164062 L 96.671875 230.164062 L 89.671875 230.164062 Z M 89.671875 216.164062 "/>
<g style="fill:rgb(20%,80%,80%);fill-opacity:1;">
  <use xlink:href="#glyph0-1" x="89.671875" y="227.302734"/>
</g>
<path style="fill:none;stroke-width:1.2;stroke-linecap:butt;stroke-linejoin:miter;stroke:rgb(0%,0%,0%);stroke-opacity:1;stroke-miterlimit:10;" d="M 93.289062 172.902344 L 79.085938 147.59375 "/>
<path style="fill:none;stroke-width:1.2;stroke-linecap:butt;stroke-linejoin:miter;stroke:rgb(0%,0%,0%);stroke-opacity:1;stroke-miterlimit:10;" d="M 85.910156 173.714844 L 74.550781 153.46875 "/>
<path style="fill:none;stroke-width:1.2;stroke-linecap:butt;stroke-linejoin:miter;stroke:rgb(0%,0%,0%);stroke-opacity:1;stroke-miterlimit:10;" d="M 79.085938 147.59375 L 93.902344 122.640625 "/>
<path style="fill:none;stroke-width:1.2;stroke-linecap:butt;stroke-linejoin:miter;stroke:rgb(0%,0%,0%);stroke-opacity:1;stroke-miterlimit:10;" d="M 93.902344 122.640625 L 88.164062 109.316406 "/>
<path style="fill:none;stroke-width:1.2;stroke-linecap:butt;stroke-linejoin:miter;stroke:rgb(0%,0%,100%);stroke-opacity:1;stroke-miterlimit:10;" d="M 88.164062 109.316406 L 82.425781 95.988281 "/>
<path style="fill:none;stroke-width:1.2;stroke-linecap:butt;stroke-linejoin:miter;stroke:rgb(0%,0%,0%);stroke-opacity:1;stroke-miterlimit:10;" d="M 99.027344 117.277344 L 94.4375 106.613281 "/>
<path style="fill:none;stroke-width:1.2;stroke-linecap:butt;stroke-linejoin:miter;stroke:rgb(0%,0%,100%);stroke-opacity:1;stroke-miterlimit:10;" d="M 94.4375 106.613281 L 89.84375 95.953125 "/>
<path style="fill:none;stroke-width:1.2;stroke-linecap:butt;stroke-linejoin:miter;stroke:rgb(0%,0%,0%);stroke-opacity:1;stroke-miterlimit:10;" d="M 122.800781 119.960938 L 93.902344 122.640625 "/>
<path style="fill:none;stroke-width:1.2;stroke-linecap:butt;stroke-linejoin:miter;stroke:rgb(0%,0%,100%);stroke-opacity:1;stroke-miterlimit:10;" d="M 82.425781 95.988281 L 104.230469 76.835938 "/>
<path style=" stroke:none;fill-rule:nonzero;fill:rgb(100%,100%,100%);fill-opacity:1;" d="M 78.425781 88.988281 L 87.425781 88.988281 L 87.425781 102.988281 L 78.425781 102.988281 Z M 78.425781 88.988281 "/>
<g style="fill:rgb(0%,0%,100%);fill-opacity:1;">
  <use xlink:href="#glyph0-2" x="78.425781" y="100.126953"/>
</g>
<path style="fill:none;stroke-width:1.2;stroke-linecap:butt;stroke-linejoin:miter;stroke:rgb(0%,0%,100%);stroke-opacity:1;stroke-miterlimit:10;" d="M 104.230469 76.835938 L 116.707031 84.242188 "/>
<path style="fill:none;stroke-width:1.2;stroke-linecap:butt;stroke-linejoin:miter;stroke:rgb(0%,0%,0%);stroke-opacity:1;stroke-miterlimit:10;" d="M 116.707031 84.242188 L 129.183594 91.652344 "/>
<path style=" stroke:none;fill-rule:nonzero;fill:rgb(100%,100%,100%);fill-opacity:1;" d="M 95.230469 69.835938 L 113.230469 69.835938 L 113.230469 83.835938 L 95.230469 83.835938 Z M 95.230469 69.835938 "/>
<g style="fill:rgb(0%,0%,100%);fill-opacity:1;">
  <use xlink:href="#glyph0-2" x="95.230469" y="80.974609"/>
  <use xlink:href="#glyph0-3" x="104.207031" y="80.974609"/>
</g>
<path style="fill:none;stroke-width:1.2;stroke-linecap:butt;stroke-linejoin:miter;stroke:rgb(0%,0%,0%);stroke-opacity:1;stroke-miterlimit:10;" d="M 129.183594 91.652344 L 122.800781 119.960938 "/>
<path style="fill:none;stroke-width:1.2;stroke-linecap:butt;stroke-linejoin:miter;stroke:rgb(0%,0%,0%);stroke-opacity:1;stroke-miterlimit:10;" d="M 121.882812 92.980469 L 116.777344 115.628906 "/>
<path style="fill:none;stroke-width:1.2;stroke-linecap:butt;stroke-linejoin:miter;stroke:rgb(0%,0%,0%);stroke-opacity:1;stroke-miterlimit:10;" d="M 122.800781 119.960938 L 141.953125 141.765625 "/>
<path style="fill:none;stroke-width:1.2;stroke-linecap:butt;stroke-linejoin:miter;stroke:rgb(0%,0%,0%);stroke-opacity:1;stroke-miterlimit:10;" d="M 141.953125 141.765625 L 132.648438 169.253906 "/>
<path style="fill:none;stroke-width:1.2;stroke-linecap:butt;stroke-linejoin:miter;stroke:rgb(0%,0%,0%);stroke-opacity:1;stroke-miterlimit:10;" d="M 141.953125 141.765625 L 170.410156 136.082031 "/>
<path style="fill:none;stroke-width:1.2;stroke-linecap:butt;stroke-linejoin:miter;stroke:rgb(0%,0%,0%);stroke-opacity:1;stroke-miterlimit:10;" d="M 146.136719 147.894531 L 168.902344 143.347656 "/>
<path style="fill:none;stroke-width:1.2;stroke-linecap:butt;stroke-linejoin:miter;stroke:rgb(0%,0%,0%);stroke-opacity:1;stroke-miterlimit:10;" d="M 132.648438 169.253906 L 151.800781 191.058594 "/>
<path style="fill:none;stroke-width:1.2;stroke-linecap:butt;stroke-linejoin:miter;stroke:rgb(0%,0%,0%);stroke-opacity:1;stroke-miterlimit:10;" d="M 139.691406 166.929688 L 155.015625 184.371094 "/>
<path style="fill:none;stroke-width:1.2;stroke-linecap:butt;stroke-linejoin:miter;stroke:rgb(0%,0%,0%);stroke-opacity:1;stroke-miterlimit:10;" d="M 151.800781 191.058594 L 180.257812 185.371094 "/>
<path style="fill:none;stroke-width:1.2;stroke-linecap:butt;stroke-linejoin:miter;stroke:rgb(0%,0%,0%);stroke-opacity:1;stroke-miterlimit:10;" d="M 180.257812 185.371094 L 184.910156 171.628906 "/>
<path style="fill:none;stroke-width:1.2;stroke-linecap:butt;stroke-linejoin:miter;stroke:rgb(0%,0%,100%);stroke-opacity:1;stroke-miterlimit:10;" d="M 184.910156 171.628906 L 189.5625 157.882812 "/>
<path style="fill:none;stroke-width:1.2;stroke-linecap:butt;stroke-linejoin:miter;stroke:rgb(0%,0%,100%);stroke-opacity:1;stroke-miterlimit:10;" d="M 203.527344 202.71875 L 191.890625 194.046875 "/>
<path style="fill:none;stroke-width:1.2;stroke-linecap:butt;stroke-linejoin:miter;stroke:rgb(0%,0%,0%);stroke-opacity:1;stroke-miterlimit:10;" d="M 191.890625 194.046875 L 180.257812 185.371094 "/>
<path style="fill:none;stroke-width:1.2;stroke-linecap:butt;stroke-linejoin:miter;stroke:rgb(0%,0%,100%);stroke-opacity:1;stroke-miterlimit:10;" d="M 205.28125 195.507812 L 195.972656 188.570312 "/>
<path style="fill:none;stroke-width:1.2;stroke-linecap:butt;stroke-linejoin:miter;stroke:rgb(0%,0%,0%);stroke-opacity:1;stroke-miterlimit:10;" d="M 195.972656 188.570312 L 186.667969 181.632812 "/>
<path style="fill:none;stroke-width:1.2;stroke-linecap:butt;stroke-linejoin:miter;stroke:rgb(0%,0%,100%);stroke-opacity:1;stroke-miterlimit:10;" d="M 189.5625 157.882812 L 179.988281 146.984375 "/>
<path style="fill:none;stroke-width:1.2;stroke-linecap:butt;stroke-linejoin:miter;stroke:rgb(0%,0%,0%);stroke-opacity:1;stroke-miterlimit:10;" d="M 179.988281 146.984375 L 170.410156 136.082031 "/>
<path style="fill:none;stroke-width:1.2;stroke-linecap:butt;stroke-linejoin:miter;stroke:rgb(0%,0%,100%);stroke-opacity:1;stroke-miterlimit:10;" d="M 189.5625 157.882812 L 204.074219 158.0625 "/>
<path style="fill:none;stroke-width:1.2;stroke-linecap:butt;stroke-linejoin:miter;stroke:rgb(0%,0%,0%);stroke-opacity:1;stroke-miterlimit:10;" d="M 204.074219 158.0625 L 218.582031 158.242188 "/>
<path style=" stroke:none;fill-rule:nonzero;fill:rgb(100%,100%,100%);fill-opacity:1;" d="M 185.5625 150.882812 L 194.5625 150.882812 L 194.5625 164.882812 L 185.5625 164.882812 Z M 185.5625 150.882812 "/>
<g style="fill:rgb(0%,0%,100%);fill-opacity:1;">
  <use xlink:href="#glyph0-2" x="185.5625" y="162.021484"/>
</g>
<path style="fill:none;stroke-width:1.2;stroke-linecap:butt;stroke-linejoin:miter;stroke:rgb(0%,0%,0%);stroke-opacity:1;stroke-miterlimit:10;" d="M 218.582031 158.242188 L 222.898438 172.09375 "/>
<path style="fill:none;stroke-width:1.2;stroke-linecap:butt;stroke-linejoin:miter;stroke:rgb(0%,0%,100%);stroke-opacity:1;stroke-miterlimit:10;" d="M 222.898438 172.09375 L 227.210938 185.949219 "/>
<path style="fill:none;stroke-width:1.2;stroke-linecap:butt;stroke-linejoin:miter;stroke:rgb(0%,0%,0%);stroke-opacity:1;stroke-miterlimit:10;" d="M 212.925781 163.042969 L 216.378906 174.125 "/>
<path style="fill:none;stroke-width:1.2;stroke-linecap:butt;stroke-linejoin:miter;stroke:rgb(0%,0%,100%);stroke-opacity:1;stroke-miterlimit:10;" d="M 216.378906 174.125 L 219.828125 185.207031 "/>
<path style="fill:none;stroke-width:1.2;stroke-linecap:butt;stroke-linejoin:miter;stroke:rgb(0%,0%,0%);stroke-opacity:1;stroke-miterlimit:10;" d="M 218.582031 158.242188 L 235.925781 134.972656 "/>
<path style="fill:none;stroke-width:1.2;stroke-linecap:butt;stroke-linejoin:miter;stroke:rgb(0%,0%,100%);stroke-opacity:1;stroke-miterlimit:10;" d="M 227.210938 185.949219 L 203.527344 202.71875 "/>
<path style=" stroke:none;fill-rule:nonzero;fill:rgb(100%,100%,100%);fill-opacity:1;" d="M 223.210938 178.949219 L 232.210938 178.949219 L 232.210938 192.949219 L 223.210938 192.949219 Z M 223.210938 178.949219 "/>
<g style="fill:rgb(0%,0%,100%);fill-opacity:1;">
  <use xlink:href="#glyph0-2" x="223.210938" y="190.087891"/>
</g>
<path style=" stroke:none;fill-rule:nonzero;fill:rgb(100%,100%,100%);fill-opacity:1;" d="M 199.527344 195.71875 L 208.527344 195.71875 L 208.527344 209.71875 L 199.527344 209.71875 Z M 199.527344 195.71875 "/>
<g style="fill:rgb(0%,0%,100%);fill-opacity:1;">
  <use xlink:href="#glyph0-2" x="199.527344" y="206.857422"/>
</g>
<path style="fill:none;stroke-width:1.2;stroke-linecap:butt;stroke-linejoin:miter;stroke:rgb(0%,0%,0%);stroke-opacity:1;stroke-miterlimit:10;" d="M 235.925781 134.972656 L 264.75 138.359375 "/>
<path style="fill:none;stroke-width:1.2;stroke-linecap:butt;stroke-linejoin:miter;stroke:rgb(0%,0%,0%);stroke-opacity:1;stroke-miterlimit:10;" d="M 235.925781 134.972656 L 224.449219 108.320312 "/>
</g>
</svg>

<svg xmlns="http://www.w3.org/2000/svg" xmlns:xlink="http://www.w3.org/1999/xlink" width="300pt" height="300pt" viewBox="0 0 300 300"><defs><symbol overflow="visible"><path d="M.594 2.125V-8.47h6V2.126zm.672-.672h4.671V-7.78h-4.67zm0 0"/></symbol><symbol overflow="visible" id="a"><path d="M1.172-8.75h5.03v1H2.36v2.578h3.468v1h-3.47V0H1.173zm0 0"/></symbol><symbol overflow="visible" id="b"><path d="M1.172-8.75h1.594l3.89 7.313V-8.75h1.14V0H6.204L2.328-7.313V0H1.172zm0 0"/></symbol><symbol overflow="visible" id="c"><path d="M1.172-8.75H2.36v3.594h4.296V-8.75h1.188V0H6.656v-4.172H2.36V0H1.17zm0 0"/></symbol></defs><g><path fill="#fff" d="M0 0h300v300H0z"/><path d="M35.867 121.93l7.102 12.656" stroke-width="1.2" stroke="#3cc" stroke-miterlimit="10" fill="none"/><path d="M42.97 134.586l7.096 12.652" stroke-width="1.2" stroke="#000" stroke-miterlimit="10" fill="none"/><path d="M28.867 114.93h7v14h-7zm0 0" fill="#fff"/><use xlink:href="#a" x="28.867" y="126.068" fill="#3cc"/><path d="M50.066 147.238L35.25 172.19M54.457 153.22l-11.855 19.964M79.086 147.594l-29.02-.356M35.25 172.19l14.2 25.31M49.45 197.5l29.02.355M52.438 190.707l23.214.285M78.47 197.855l7.1 12.657" stroke-width="1.2" stroke="#000" stroke-miterlimit="10" fill="none"/><path d="M85.57 210.512l7.102 12.652" stroke-width="1.2" stroke="#3cc" stroke-miterlimit="10" fill="none"/><path d="M78.47 197.855l14.82-24.953" stroke-width="1.2" stroke="#000" stroke-miterlimit="10" fill="none"/><path d="M89.672 216.164h7v14h-7zm0 0" fill="#fff"/><use xlink:href="#a" x="89.672" y="227.303" fill="#3cc"/><path d="M93.29 172.902l-14.204-25.308M85.91 173.715L74.55 153.47M79.086 147.594l14.816-24.953M93.902 122.64l-5.738-13.324" stroke-width="1.2" stroke="#000" stroke-miterlimit="10" fill="none"/><path d="M88.164 109.316l-5.738-13.328" stroke-width="1.2" stroke="#00f" stroke-miterlimit="10" fill="none"/><path d="M99.027 117.277l-4.59-10.664" stroke-width="1.2" stroke="#000" stroke-miterlimit="10" fill="none"/><path d="M94.438 106.613l-4.594-10.66" stroke-width="1.2" stroke="#00f" stroke-miterlimit="10" fill="none"/><path d="M122.8 119.96l-28.898 2.68" stroke-width="1.2" stroke="#000" stroke-miterlimit="10" fill="none"/><path d="M82.426 95.988l21.804-19.152" stroke-width="1.2" stroke="#00f" stroke-miterlimit="10" fill="none"/><path d="M78.426 88.988h9v14h-9zm0 0" fill="#fff"/><use xlink:href="#b" x="78.426" y="100.127" fill="#00f"/><path d="M104.23 76.836l12.477 7.406" stroke-width="1.2" stroke="#00f" stroke-miterlimit="10" fill="none"/><path d="M116.707 84.242l12.477 7.41" stroke-width="1.2" stroke="#000" stroke-miterlimit="10" fill="none"/><path d="M95.23 69.836h18v14h-18zm0 0" fill="#fff"/><g fill="#00f"><use xlink:href="#b" x="95.23" y="80.975"/><use xlink:href="#c" x="104.207" y="80.975"/></g><path d="M129.184 91.652l-6.383 28.31M121.883 92.98l-5.106 22.65M122.8 119.96l19.153 21.806M141.953 141.766l-9.305 27.488M141.953 141.766l28.457-5.684M146.137 147.895l22.765-4.547M132.648 169.254L151.8 191.06M139.69 166.93l15.326 17.44M151.8 191.06l28.458-5.69M180.258 185.37l4.652-13.74" stroke-width="1.2" stroke="#000" stroke-miterlimit="10" fill="none"/><path d="M184.91 171.63l4.653-13.747M203.527 202.72l-11.636-8.673" stroke-width="1.2" stroke="#00f" stroke-miterlimit="10" fill="none"/><path d="M191.89 194.047l-11.632-8.676" stroke-width="1.2" stroke="#000" stroke-miterlimit="10" fill="none"/><path d="M205.28 195.508l-9.307-6.938" stroke-width="1.2" stroke="#00f" stroke-miterlimit="10" fill="none"/><path d="M195.973 188.57l-9.305-6.937" stroke-width="1.2" stroke="#000" stroke-miterlimit="10" fill="none"/><path d="M189.563 157.883l-9.575-10.9" stroke-width="1.2" stroke="#00f" stroke-miterlimit="10" fill="none"/><path d="M179.988 146.984l-9.578-10.902" stroke-width="1.2" stroke="#000" stroke-miterlimit="10" fill="none"/><path d="M189.563 157.883l14.51.18" stroke-width="1.2" stroke="#00f" stroke-miterlimit="10" fill="none"/><path d="M204.074 158.063l14.508.18" stroke-width="1.2" stroke="#000" stroke-miterlimit="10" fill="none"/><path d="M185.563 150.883h9v14h-9zm0 0" fill="#fff"/><use xlink:href="#b" x="185.563" y="162.021" fill="#00f"/><path d="M218.582 158.242l4.316 13.852" stroke-width="1.2" stroke="#000" stroke-miterlimit="10" fill="none"/><path d="M222.898 172.094l4.313 13.855" stroke-width="1.2" stroke="#00f" stroke-miterlimit="10" fill="none"/><path d="M212.926 163.043l3.453 11.082" stroke-width="1.2" stroke="#000" stroke-miterlimit="10" fill="none"/><path d="M216.38 174.125l3.448 11.082" stroke-width="1.2" stroke="#00f" stroke-miterlimit="10" fill="none"/><path d="M218.582 158.242l17.344-23.27" stroke-width="1.2" stroke="#000" stroke-miterlimit="10" fill="none"/><path d="M227.21 185.95l-23.683 16.77" stroke-width="1.2" stroke="#00f" stroke-miterlimit="10" fill="none"/><path d="M223.21 178.95h9v14h-9zm0 0" fill="#fff"/><use xlink:href="#b" x="223.211" y="190.088" fill="#00f"/><path d="M199.527 195.72h9v14h-9zm0 0" fill="#fff"/><use xlink:href="#b" x="199.527" y="206.857" fill="#00f"/><path d="M235.926 134.973l28.824 3.386M235.926 134.973L224.45 108.32" stroke-width="1.2" stroke="#000" stroke-miterlimit="10" fill="none"/></g></svg>
